X: 2
T: The London Hornpipe (Variations Set)
R: hornpipe
C: James Hill
M: 4/4
L: 1/8
K: Gmaj
|:B>c|d>gf>e d>cB>A |G>BD>G B2 (3BAG|\
F>AD>F A2 (3AGF|G>DE>F G>AB>c|
d>gf>e d>cB>A|G>BD>G B2 (3BAG|\
F>GA>B c>de>f|g2 G2 G2:|
|:A>G|F>AD>F A2 (3AGF|G>BD>G B2 (3BAG|\
F>AD>F A (3AGF|G>DE>F G>AB>c|
d>gf>e D>CB>|G>BD>G (3BcB A>G|\
F>GA>B c>de>f|g2 G2 G2:| 
|:B>c|d>gf>e (3ded (3cBA|G>BD>G (3BcB A>G|F>AD>F (3ABA G>F|G>DE>F G>AB>c|
d>gf>e (3ded (3cBA|G>BD>G (3BcB A>G|F>GA>B c>de>f|g2 G2 G2:|
|:A>G|F>AD>F (3ABA G>F|G>BD>G (3BcB A>G|F>AD>F (3ABA G>F|G>DE>F G>AB>c|
d>gf>e (3ded (3cBA|G>BD>G (3BcB A>G|F>GA>B c>de>f|g2 G2 G2:| 